X: 4359
T: ELATE TO OUR VILLAGE RETURNING. (La Sonnambula.)
R: air, jig
%R: air, jig
B: James Kerr "Merry Melodies" v.4 p.38 #359
Z: 2016 John Chambers <jc:trillian.mit.edu>
M: 6/8
L: 1/8
K: D
|:\
d3 d3 | d3 dcB | ABA GFE | F3 D3 |\
d3 d3 | d3 dcB | ABA GFE |[1 D3- D2z :|[2 D3 DF^G |
A3 A3 | A3 A^GA | B^AB dcB | c3 A3 |\
A3 A3 | A3 A^GA | B^AB dcB | c3- "_D.C."c2z |]

%%sep 1 1 500
%%sep 1 1 500

